X:7427
T:the Trip to Slaidburn
O:england
R:Jig
N:23.11.'96
M:6/8
Q:1/8=372
C:Andy Hornby
A:Lancaster
K:D
A|\
DEF AFA|Bcd A2d|Bcd Acd|Bcd ecA|\
DEF AFA|Bcd A2d|B/c/dB cec|d3 d2::
e|\
fdf ecA|B/c/dB A2F|Bcd Acd|Bcd e2A|\
fdf ecA|B/c/dB AFA|B/c/dB cec|d3 d2e|
fdf ecA|B/c/dB A2F|Bcd Acd|GFE E2F|\
DEF AFA|Bcd A2A|B/c/dB cec|d3 d2|]
W:Copyright (C) Andy Hornby


